assets/features/channel/southeast-asia1/PNB.svg

<svg width="80" height="80" viewBox="0 0 80 80" fill="none" xmlns="http://www.w3.org/2000/svg">
<rect x="0.5" y="0.5" width="79" height="79" rx="7.5" fill="white"/>
<rect x="0.5" y="0.5" width="79" height="79" rx="7.5" stroke="#EEEEEE"/>
<path d="M55.4181 20C57.9443 20 60.0159 22.0707 60.0159 24.596V55.404C60.0159 57.9293 57.9443 60 55.4181 60H24.5978C22.0715 60 20 57.9293 20 55.404V24.596C20 22.0707 22.0715 20 24.5978 20H55.4181Z" fill="#10357F"/>
<path d="M55.4181 22.02H24.5978C23.1831 22.02 22.0715 23.1816 22.0715 24.5453V55.3534C22.0715 56.7675 23.2336 57.8786 24.5978 57.8786H55.4181C56.8328 57.8786 57.9443 56.717 57.9443 55.3534V24.5453C57.9443 23.1816 56.8328 22.02 55.4181 22.02Z" fill="white"/>
<path d="M40.008 22.9795L40.109 23.1815C40.109 23.1815 40.5132 23.8381 41.5237 24.4946C42.5342 25.1512 44.05 25.8078 46.3741 25.8078C47.0309 25.8078 47.7888 25.7573 48.5972 25.6058H48.7488L48.7993 25.7068C49.3551 27.5249 51.0224 28.434 52.5382 28.8886C54.0539 29.3431 55.4686 29.3431 55.4686 29.3431H55.7718L55.6202 29.5957C55.6202 29.5957 55.2665 30.1007 54.9129 31.0098C54.5087 31.9189 54.155 33.2825 54.155 34.9492V49.0401C54.155 49.1411 54.155 49.2421 54.155 49.3431C54.155 51.2623 54.0539 53.3835 51.073 54.0906C48.0415 54.7977 41.7258 56.3128 41.17 56.4138C40.5637 56.5654 40.109 57.1209 40.109 57.1209L40.008 57.3229L39.9069 57.1714C39.9069 57.1714 39.4522 56.6159 38.8459 56.4643C38.2901 56.3128 31.924 54.7977 28.8924 54.0906C25.9115 53.3835 25.8104 51.2623 25.8104 49.3431C25.8104 49.2421 25.8104 49.1411 25.8104 49.0401V34.9492C25.8104 33.232 25.4567 31.9189 25.1031 31.0098C24.7494 30.1007 24.3957 29.5957 24.3957 29.5957L24.2441 29.3431H24.5473C24.5473 29.3431 25.962 29.3431 27.4777 28.8886C29.044 28.434 30.6608 27.4744 31.2166 25.7068L31.2671 25.6058H31.4187C32.2271 25.7573 32.985 25.8078 33.6418 25.8078C35.9154 25.8078 37.4817 25.1512 38.4922 24.4946C39.5027 23.8381 39.9069 23.1815 39.9069 23.1815L40.008 22.9795Z" fill="#10357F"/>
<path d="M52.7403 31.0101C52.6897 31.0101 52.6392 31.0101 52.5382 30.9596C52.0834 30.8586 51.275 30.6566 50.3151 30.3031C49.4056 29.9495 48.3951 29.293 47.8393 28.1818C47.8393 28.1818 47.6878 27.8788 47.5867 27.6768C47.5867 27.5758 47.5867 27.5253 47.5867 27.5253C47.5867 27.5253 47.4857 27.5253 47.4351 27.5758C47.3341 27.5758 46.8794 27.6768 46.8794 27.6768C46.4752 27.7273 46.1215 27.7778 45.7678 27.7778C43.7468 27.7778 42.0289 27.0202 41.069 26.4647C40.4627 26.1111 40.109 25.8081 40.109 25.8081C40.109 25.8081 39.7048 26.1111 39.149 26.4647C38.1385 27.0202 36.4207 27.7778 34.4502 27.7778C34.0965 27.7778 33.6923 27.7778 33.3386 27.6768C33.3386 27.6768 32.8839 27.5758 32.7829 27.5758C32.7323 27.5758 32.6313 27.5253 32.6313 27.5253C32.6313 27.5253 32.5808 27.6263 32.5808 27.6768C32.5302 27.8283 32.3281 28.1818 32.3281 28.1818C31.7724 29.293 30.7619 29.9495 29.8524 30.3031C28.8924 30.6566 28.0335 30.8586 27.5788 30.9596C27.4777 30.9596 27.4272 31.0101 27.3767 31.0101C27.3261 31.0101 27.2251 31.0101 27.2251 31.0101C27.2251 31.0101 27.2251 31.0606 27.2756 31.1111C27.2756 31.1616 27.3261 31.2627 27.3767 31.3132C27.4777 31.6162 27.6798 32.1212 27.7809 32.7273C27.7809 32.7273 27.9324 33.6869 27.9324 34.596V36.0101H35.3091C35.7638 33.7879 37.7848 32.1212 40.1595 32.1212C42.5342 32.1212 44.5047 33.7879 45.0099 36.0101H52.3866V34.596C52.3866 33.6869 52.5382 32.7273 52.5382 32.7273C52.6392 32.0707 52.8413 31.6162 52.9424 31.3132C52.9929 31.2627 52.9929 31.1616 53.0434 31.1111C53.0434 31.0606 53.0939 31.0101 53.0939 31.0101C53.0939 31.0101 52.7908 31.0101 52.7403 31.0101Z" fill="white"/>
<path d="M35.1574 38.0806H27.8313V47.6765C27.8313 47.9291 27.8313 49.3432 27.8313 49.6462C27.8313 51.6664 28.6397 51.9695 30.307 52.3735C31.5196 52.6765 33.9448 53.2321 35.6122 53.6361C36.4206 53.8381 37.1784 53.9897 37.7847 54.1412C38.3405 54.2927 38.7952 54.3937 38.7952 54.3937C38.7952 54.3937 38.8963 54.3937 38.9973 54.4442V41.9189C37.0774 41.4644 35.5616 39.9998 35.1574 38.0806Z" fill="#00AEEF"/>
<path d="M41.0688 41.8687V54.3939C41.2204 54.3939 41.2709 54.3434 41.2709 54.3434C41.3215 54.3434 41.7257 54.2424 42.2815 54.0909C42.8372 53.9394 43.5951 53.7879 44.454 53.5858C46.1214 53.1818 48.496 52.6262 49.7592 52.3232C51.4265 51.9192 52.2349 51.5656 52.2349 49.5959C52.2349 49.2929 52.2349 47.9293 52.2349 47.6262V38.0303H44.8582C44.454 40 42.9383 41.4646 41.0688 41.8687Z" fill="#ED1C24"/>
<path d="M43.7468 37.8789L44.5552 37.0708L43.7468 36.2628L42.4837 36.6163C42.4332 36.2628 42.2816 35.9597 42.0795 35.7072L43.2416 35.0506V33.889H42.0795L41.4227 35.0506C41.17 34.8486 40.8164 34.7476 40.5132 34.6466L40.8669 33.384L40.008 32.5254L39.1996 33.3335L39.5532 34.5961C39.1995 34.6466 38.8964 34.7981 38.6438 35.0001L37.9869 33.8385H36.8249V35.0001L37.9869 35.6567C37.7848 35.9092 37.6838 36.2628 37.5827 36.5658L36.3196 36.2123L35.4607 37.0708L36.2691 37.8789L37.5322 37.5254C37.5827 37.8789 37.7343 38.182 37.9364 38.4345L36.7743 39.091V40.2527H37.9364L38.5932 39.091C38.8459 39.2931 39.1995 39.3941 39.5027 39.4951L39.149 40.8082L39.9574 41.6163L40.7658 40.8082L40.4627 39.4951C40.8164 39.4446 41.1195 39.2931 41.3721 39.091L42.029 40.2527H43.191V39.091L42.029 38.4345C42.2311 38.182 42.3321 37.8284 42.4332 37.5254L43.7468 37.8789Z" fill="#FDB913"/>
<path d="M32.2775 42.6263L32.4291 41.9697L31.8733 41.8687C31.8733 41.8687 31.7723 41.7172 31.6712 41.6162H32.3281C32.3281 41.6162 32.227 41.5152 32.227 41.4647C32.227 41.4142 32.126 41.4142 32.0249 41.4142H31.2165C31.267 41.3637 31.267 41.1112 31.3176 41.0606C31.3176 41.0101 31.4186 40.8586 31.6712 40.8081C32.0249 40.7576 32.3281 40.7071 32.3281 40.7071C32.3281 40.7071 32.4796 40.4546 32.7828 40.4546H33.5912C33.9954 40.4546 34.0964 40.7576 34.147 41.1617C34.1975 41.3637 34.2985 42.0202 34.3491 42.6768H37.5827L37.4816 43.8889L35.208 43.9394V44.1415L37.3806 44.4445L36.9764 45.5556L35.1575 45.1516L35.1069 45.3031L36.7237 46.1617L36.0164 47.0708L34.9048 46.2627L34.8038 46.3637L35.5617 47.4748L35.2585 47.6768L35.9153 48.5859L36.269 47.9293H36.9258L37.0774 48.7374L36.7743 49.3435L36.6732 48.7879H36.4711L35.9659 49.596L36.1174 49.8485H36.4711L36.168 50.2021H35.8648L35.4101 49.596L35.6122 49.1415L34.8038 47.9798L34.248 48.3334L35.4101 50.8081L34.6017 51.3132L33.7428 49.091L34.0964 51.6667L33.288 52.1718L32.4796 51.6667L32.8333 49.091L32.0249 51.3637L31.2165 50.8586L32.3786 48.3839L31.8228 48.0303L31.0144 49.192L31.2165 49.6465L30.7618 50.3031H30.4586L30.1555 49.9495H30.5092L30.6607 49.697L30.1555 48.9394H29.9534L29.8523 49.495L29.5492 48.8889L29.7008 48.0809H30.3576L30.7113 48.7374L31.3681 47.8283L31.0649 47.6263L31.8228 46.5152L31.7218 46.4142L30.6102 47.0708L29.9029 46.1617L31.5197 45.3031L31.4691 45.1516L29.6502 45.5556L29.2966 44.4445L31.4691 44.1415V43.9394L29.1955 43.8889L28.9934 42.5758H32.2775V42.6263Z" fill="#10357F"/>
<path d="M50.5171 47.1713L50.7698 46.7168L50.4161 46.3128L48.6477 46.0602C48.6477 45.8582 48.6477 45.6057 48.6477 45.3532C48.8498 45.4542 49.1024 45.5552 49.3551 45.6562C49.8098 45.3027 50.5677 44.6966 50.5677 44.6966V43.0804L49.9614 43.535V44.242L49.3045 44.6461C49.3045 44.6461 49.1024 44.5451 48.6477 44.3431C48.4456 44.141 48.1425 43.838 48.1425 43.838L48.193 43.535C48.193 43.535 48.6982 43.535 48.7993 43.535C48.9003 43.535 49.1024 43.6865 49.1024 43.6865L49.3551 42.7774H48.4456C48.294 42.7774 48.3446 42.6259 48.3446 42.5249C48.3951 42.3734 48.3951 42.2218 48.6477 42.2218H49.5066C49.5066 42.2218 49.6582 41.8178 49.7087 41.6158C49.7593 41.4138 49.6077 41.2117 49.4561 41.2117C49.3045 41.2117 49.1024 41.2117 48.9003 41.2117C48.9003 41.1107 48.6982 40.7572 48.4961 40.7572H48.0414L47.7888 40.5552H45.4646L45.7678 40.9592L44.7068 41.9693C44.7068 41.9693 44.4541 42.5754 44.4541 42.9794L45.3636 42.5249L45.3131 42.7774L44.3026 43.535C44.3026 43.838 44.4541 44.141 44.5047 44.4441L45.1615 43.8885V44.141L44.6057 44.8481L44.9089 45.5047L45.3636 44.9491L45.4141 45.3027L44.8583 46.4643C44.8583 46.4643 44.3531 46.6158 44.1005 47.0703C43.191 47.1713 42.8879 46.2117 43.3931 45.5047C44.7573 43.535 43.4942 42.6764 43.4942 42.6764H42.8373V43.2824C42.8373 43.2824 43.2921 43.2824 43.3426 43.8885C43.3931 44.6966 42.4331 45.1006 42.3826 46.2117C42.2816 46.9693 42.7363 47.7269 43.8478 47.8279C43.8478 47.9289 43.8478 48.0299 43.8984 48.1814C43.8984 48.2824 43.9489 48.3835 43.9994 48.4845C44.1005 48.838 44.3026 49.3936 44.3026 49.3936C44.3026 49.3936 44.0499 50.2016 43.6457 50.3532C44.2015 51.0602 44.9089 52.0198 44.9089 52.0198H46.9804L46.6267 51.1107L45.7173 51.0602L45.3131 50.2521L46.2225 49.04C46.273 49.04 46.273 49.04 46.3236 49.04C46.5762 49.04 47.0309 49.04 47.233 49.04C47.5362 49.04 47.5362 49.242 47.5362 49.2926C47.4856 49.6461 47.4351 49.8986 47.4351 49.8986H49.6077L50.315 48.434L49.6077 48.4845L49.2035 48.9895H48.5972C48.5972 48.9895 48.6477 48.7875 48.8498 48.2319C48.9003 48.0804 48.7993 47.8279 48.4961 47.8279C48.3951 47.8279 48.0414 47.8279 47.7383 47.8279C47.8898 47.6259 48.0919 47.2218 48.294 46.9693H49.4056L49.3551 47.2218L50.5171 47.1713Z" fill="#10357F"/>
<path d="M40.0078 30.3031L41.2204 31.1617L40.7657 29.7475L41.9783 28.8385H40.4626L40.0078 27.4243L39.5531 28.8385H38.0374L39.25 29.7475L38.7952 31.1617L40.0078 30.3031Z" fill="#FDB913"/>
<path d="M32.8838 32.7269L34.1469 33.636L33.6417 32.1714L34.8543 31.3128H33.3891L32.8838 29.8481L32.4291 31.3128H30.9133L32.1259 32.1714L31.6712 33.636L32.8838 32.7269Z" fill="#FDB913"/>
<path d="M47.0813 32.7269L45.8687 33.636L46.374 32.1714L45.1108 31.3128H46.6266L47.0813 29.8481L47.5866 31.3128H49.1023L47.8392 32.1714L48.3444 33.636L47.0813 32.7269Z" fill="#FDB913"/>
</svg>

<svg xmlns="http://www.w3.org/2000/svg" width="80" height="80" fill="none" viewBox="0 0 80 80"><rect width="79" height="79" x=".5" y=".5" fill="#fff" rx="7.5"/><rect width="79" height="79" x=".5" y=".5" stroke="#eee" rx="7.5"/><path fill="#10357f" d="M55.418 20c2.526 0 4.598 2.07 4.598 4.596v30.808c0 2.525-2.072 4.596-4.598 4.596h-30.82C22.072 60 20 57.93 20 55.404V24.596C20 22.071 22.072 20 24.598 20z"/><path fill="#fff" d="M55.418 22.02h-30.82a2.533 2.533 0 0 0-2.526 2.525v30.808a2.533 2.533 0 0 0 2.526 2.526h30.82a2.533 2.533 0 0 0 2.526-2.526V24.545a2.533 2.533 0 0 0-2.526-2.525"/><path fill="#10357f" d="m40.008 22.98.101.201s.404.657 1.415 1.314c1.01.656 2.526 1.313 4.85 1.313.657 0 1.415-.05 2.223-.202h.152l.05.1c.556 1.819 2.223 2.728 3.74 3.183 1.515.454 2.93.454 2.93.454h.303l-.152.253s-.353.505-.707 1.414c-.404.909-.758 2.272-.758 3.94v14.393c0 1.92-.101 4.04-3.082 4.748-3.032.707-9.347 2.222-9.903 2.323-.606.151-1.061.707-1.061.707l-.101.202-.101-.152s-.455-.555-1.061-.707c-.556-.151-6.922-1.666-9.954-2.373-2.98-.708-3.082-2.829-3.082-4.748V34.95c0-1.718-.353-3.031-.707-3.94-.354-.91-.707-1.414-.707-1.414l-.152-.253h.303s1.415 0 2.93-.454c1.567-.455 3.184-1.415 3.74-3.182l.05-.101h.152c.808.151 1.566.202 2.223.202 2.273 0 3.84-.657 4.85-1.313 1.01-.657 1.415-1.314 1.415-1.314z"/><path fill="#fff" d="M52.74 31.01c-.05 0-.1 0-.202-.05a17.5 17.5 0 0 1-2.223-.657c-.91-.354-1.92-1.01-2.476-2.121l-.252-.505v-.152s-.101 0-.152.05c-.1 0-.556.102-.556.102-.404.05-.758.1-1.111.1-2.021 0-3.74-.757-4.699-1.312-.606-.354-.96-.657-.96-.657s-.404.303-.96.657c-1.01.555-2.728 1.313-4.699 1.313-.354 0-.758 0-1.111-.101 0 0-.455-.101-.556-.101a.5.5 0 0 1-.152-.05s-.05.1-.05.15c-.05.152-.253.506-.253.506-.556 1.111-1.566 1.768-2.476 2.121-.96.354-1.819.556-2.273.657-.101 0-.152.05-.202.05h-.152s0 .05.05.101c0 .05.051.152.102.202.1.303.303.808.404 1.414 0 0 .151.96.151 1.869v1.414h7.377c.455-2.222 2.476-3.889 4.85-3.889 2.375 0 4.346 1.667 4.85 3.89h7.378v-1.415c0-.91.151-1.869.151-1.869.101-.656.303-1.11.404-1.414.05-.05.05-.151.101-.202 0-.05.05-.1.05-.1z"/><path fill="#00aeef" d="M35.157 38.08h-7.326v11.566c0 2.02.809 2.323 2.476 2.727 1.213.303 3.638.86 5.305 1.263.809.202 1.566.354 2.173.505.556.152 1.01.253 1.01.253s.101 0 .202.05V41.92c-1.92-.455-3.435-1.92-3.84-3.838"/><path fill="#ed1c24" d="M41.069 41.869v12.525c.151 0 .202-.05.202-.05.05 0 .455-.102 1.01-.253.556-.152 1.314-.303 2.173-.505 1.667-.404 4.042-.96 5.305-1.263 1.667-.404 2.476-.757 2.476-2.727V38.03h-7.377a4.93 4.93 0 0 1-3.79 3.839"/><path fill="#fdb913" d="m43.747 37.879.808-.808-.808-.808-1.263.353a1.87 1.87 0 0 0-.404-.909l1.162-.656v-1.162H42.08l-.657 1.162c-.253-.202-.607-.303-.91-.404l.354-1.263-.859-.859-.808.809.353 1.262c-.353.05-.657.202-.91.404l-.656-1.161h-1.162V35l1.162.657c-.202.252-.303.606-.404.909l-1.263-.354-.86.859.81.808 1.262-.354c.05.354.202.657.404.91l-1.162.656v1.162h1.162l.657-1.162c.253.202.606.303.91.404l-.354 1.313.808.808.809-.808-.303-1.313a1.87 1.87 0 0 0 .91-.404l.656 1.162h1.162V39.09l-1.162-.657c.202-.252.303-.606.404-.909z"/><path fill="#10357f" d="m32.278 42.626.151-.656-.556-.101s-.1-.152-.202-.253h.657s-.101-.1-.101-.151-.101-.05-.202-.05h-.808c.05-.051.05-.304.1-.354 0-.05.102-.202.354-.253.354-.05.657-.1.657-.1s.152-.253.455-.253h.808c.404 0 .505.303.556.707.05.202.151.858.202 1.515h3.234l-.101 1.212-2.274.05v.203l2.173.302-.405 1.112-1.819-.404-.05.151 1.617.859-.708.909-1.111-.808-.101.1.758 1.112-.303.202.656.909.354-.657h.657l.151.808-.303.606-.1-.555h-.203l-.505.808.151.253h.354l-.303.353h-.303l-.455-.606.202-.454-.808-1.162-.556.353 1.162 2.475-.808.505-.86-2.222.354 2.576-.808.505-.808-.505.353-2.576-.808 2.273-.808-.505 1.162-2.475-.556-.354-.809 1.162.203.455-.455.656h-.303l-.303-.353h.353l.152-.253-.506-.758h-.202l-.1.556-.304-.606.152-.808h.657l.353.656.657-.909-.303-.202.758-1.11-.101-.102-1.112.657-.707-.91 1.617-.858-.05-.151-1.82.404-.353-1.111 2.172-.303v-.203l-2.274-.05-.202-1.313h3.285zm18.239 4.545.253-.454-.354-.404-1.768-.253v-.707a10 10 0 0 0 .707.303c.455-.353 1.213-.96 1.213-.96V43.08l-.607.455v.707l-.657.404s-.202-.1-.656-.303l-.506-.505.051-.303h.606c.101 0 .303.152.303.152l.253-.91h-.91c-.151 0-.1-.151-.1-.252.05-.152.05-.303.303-.303h.859s.151-.404.202-.606c.05-.202-.101-.404-.253-.404H48.9c0-.101-.202-.455-.404-.455h-.455l-.252-.202h-2.324l.303.404-1.061 1.01s-.253.606-.253 1.01l.91-.454-.05.252-1.011.758c0 .303.151.606.202.91l.656-.556v.252l-.555.707.303.657.455-.556.05.354-.556 1.161s-.505.152-.758.606c-.909.101-1.212-.858-.707-1.565 1.364-1.97.101-2.829.101-2.829h-.657v.606s.455 0 .506.607c.05.808-.91 1.212-.96 2.323-.101.757.353 1.515 1.465 1.616 0 .1 0 .202.05.353 0 .101.05.203.101.303.101.354.304.91.304.91s-.253.808-.657.96a82 82 0 0 1 1.263 1.666h2.071l-.353-.91-.91-.05-.404-.808.91-1.212h1.01c.303 0 .303.202.303.253-.05.353-.1.606-.1.606h2.172l.707-1.465-.707.05-.404.505h-.607s.05-.201.253-.757c.05-.152-.05-.404-.354-.404h-.758c.152-.202.354-.606.556-.859h1.112l-.05.253z"/><path fill="#fdb913" d="m40.008 30.303 1.212.859-.454-1.415 1.212-.909h-1.515l-.455-1.414-.455 1.415h-1.516l1.213.909-.455 1.414zm-7.124 2.424 1.263.909-.505-1.465 1.212-.858H33.39l-.505-1.465-.455 1.465h-1.516l1.213.858-.455 1.465zm14.197 0-1.212.909.505-1.465-1.263-.858h1.516l.454-1.465.506 1.465h1.515l-1.263.858.505 1.465z"/></svg>
